htdocs/static/volume-off.svg

<!-- Generated by IcoMoon.io -->
<svg version="1.1" xmlns="http://www.w3.org/2000/svg" width="32" height="32" viewBox="0 0 32 32">
<title>volume-off</title>
<path fill="#fff" d="M30 19.348v2.652h-2.652l-3.348-3.348-3.348 3.348h-2.652v-2.652l3.348-3.348-3.348-3.348v-2.652h2.652l3.348 3.348 3.348-3.348h2.652v2.652l-3.348 3.348 3.348 3.348z"></path>
<path fill="#fff" d="M13 30c-0.26 0-0.516-0.102-0.707-0.293l-7.707-7.707h-3.586c-0.552 0-1-0.448-1-1v-10c0-0.552 0.448-1 1-1h3.586l7.707-7.707c0.286-0.286 0.716-0.372 1.090-0.217s0.617 0.519 0.617 0.924v26c0 0.404-0.244 0.769-0.617 0.924-0.124 0.051-0.254 0.076-0.383 0.076z"></path>
</svg>

<svg xmlns="http://www.w3.org/2000/svg" width="32" height="32" viewBox="0 0 32 32"><title>volume-off</title><path fill="#fff" d="M30 19.348V22h-2.652L24 18.652 20.652 22H18v-2.652L21.348 16 18 12.652V10h2.652L24 13.348 27.348 10H30v2.652L26.652 16 30 19.348zM13 30a1 1 0 0 1-.707-.293L4.586 22H1a1 1 0 0 1-1-1V11a1 1 0 0 1 1-1h3.586l7.707-7.707A1 1 0 0 1 14 3v26a1.002 1.002 0 0 1-1 1z"/></svg>
